icons/fill-new-nature-weather-sun-sunrisn-1.svg

<svg xmlns="http://www.w3.org/2000/svg" width="32px" height="32px" viewBox="0 0 32 32" version="1.1">
    <title>fill-new-nature-weather-sun-sunrisn-1</title>
    <g id="fill-new-nature-weather-sun-sunrisn-1" stroke-width="1" fill-rule="evenodd">
        <path d="M30,25 C30.5522847,25 31,25.4477153 31,26 C31,26.5522847 30.5522847,27 30,27 L2,27 C1.44771525,27 1,26.5522847 1,26 C1,25.4477153 1.44771525,25 2,25 L30,25 Z M16,12 C22.0751322,12 27,16.9248678 27,23 L5,23 C5,16.9248678 9.92486775,12 16,12 Z M28.7279221,10.2720779 C29.1184464,10.6626022 29.1184464,11.2957672 28.7279221,11.6862915 L26.6066017,13.8076118 C26.2160774,14.1981361 25.5829124,14.1981361 25.1923882,13.8076118 C24.8018639,13.4170876 24.8018639,12.7839226 25.1923882,12.3933983 L27.3137085,10.2720779 C27.7042328,9.88155365 28.3373978,9.88155365 28.7279221,10.2720779 Z M4.6862915,10.2720779 L6.80761184,12.3933983 C7.19813614,12.7839226 7.19813614,13.4170876 6.80761184,13.8076118 C6.41708755,14.1981361 5.78392257,14.1981361 5.39339828,13.8076118 L3.27207794,11.6862915 C2.88155365,11.2957672 2.88155365,10.6626022 3.27207794,10.2720779 C3.66260223,9.88155365 4.29576721,9.88155365 4.6862915,10.2720779 Z M16,5 C16.5522847,5 17,5.44771525 17,6 L17,9 C17,9.55228475 16.5522847,10 16,10 C15.4477153,10 15,9.55228475 15,9 L15,6 C15,5.44771525 15.4477153,5 16,5 Z" id="&#24418;&#29366;" fill-rule="nonzero" />
    </g>
</svg>

<svg xmlns="http://www.w3.org/2000/svg" viewBox="0 0 32 32"><path fill="currentColor" d="M30 25a1 1 0 0 1 0 2H2a1 1 0 0 1 0-2zM16 12c6.075 0 11 4.925 11 11H5c0-6.075 4.925-11 11-11m12.728-1.728a1 1 0 0 1 0 1.414l-2.121 2.122a1 1 0 1 1-1.415-1.415l2.122-2.12a1 1 0 0 1 1.414 0m-24.042 0 2.122 2.121a1 1 0 1 1-1.415 1.415l-2.12-2.122a1 1 0 0 1 1.413-1.414M16 5a1 1 0 0 1 1 1v3a1 1 0 0 1-2 0V6a1 1 0 0 1 1-1"/></svg>
